assets/svg/1F1FA-1F1F8.svg

<svg xmlns="http://www.w3.org/2000/svg" viewBox="0 0 64 64" enable-background="new 0 0 64 64"><path fill="#ec1c24" d="m57.05 12.831h-50.11c-3.798 0-6.882 3.699-6.882 8.258v5.604 13.868 5.602c0 4.563 3.08 8.26 6.887 8.26h50.1c3.803 0 6.883-3.699 6.883-8.26v-5.602-13.866-5.604c0-4.561-3.082-8.26-6.883-8.26"/><path fill="#fff" d="m.454 48.786c.916 3.269 3.46 5.635 6.495 5.635h50.1c3.03 0 5.574-2.37 6.493-5.635h-63.09"/><path fill="#ec1c24" d="m2.435 52.36c1.201 1.281 2.775 2.065 4.515 2.065h50.1c1.737 0 3.309-.784 4.51-2.065h-59.13"/><g fill="#fff"><path d="m63.48 18.221c-.351-1.132-.883-2.159-1.588-2.996h-59.782c-.705.837-1.236 1.864-1.589 2.996h62.959"/><path d="m.065 23.257h63.869v4.411h-63.869z"/><path d="m.065 31.709h63.869v3.578h-63.869z"/><path d="m.065 39.508h63.869v5.248h-63.869z"/></g><path fill="#176496" d="m25.11 31.709v-18.878h-18.222c-3.766 0-6.826 3.359-6.826 7.495v5.086 6.294l25.05.003 0 0"/><g fill="#f4f5f5"><ellipse cx="5.263" cy="16.749" rx=".34" ry="1.862"/><path d="m5.265 17.09c1.024 0 1.852-.153 1.852-.343 0-.189-.827-.343-1.852-.343-1.029 0-1.859.154-1.859.343-.0001.19.829.343 1.859.343"/><path d="m2.522 20.407c0 1.03.15 1.863.341 1.863.192 0 .343-.833.343-1.863 0-1.029-.15-1.862-.343-1.862-.19.0001-.341.832-.341 1.862"/><ellipse cx="2.862" cy="20.408" rx="1.855" ry=".342"/><ellipse cx="10.1" cy="16.749" rx=".341" ry="1.862"/><ellipse cx="10.1" cy="16.748" rx="1.857" ry=".343"/><ellipse cx="15.03" cy="16.749" rx=".342" ry="1.862"/><ellipse cx="15.03" cy="16.748" rx="1.857" ry=".343"/><ellipse cx="19.848" cy="16.749" rx=".341" ry="1.862"/><ellipse cx="19.849" cy="16.748" rx="1.857" ry=".343"/><ellipse cx="5.281" cy="24.13" rx=".339" ry="1.863"/><path d="m5.283 24.475c1.024 0 1.853-.151 1.853-.342 0-.191-.828-.342-1.853-.342-1.028 0-1.86.151-1.86.342 0 .19.832.342 1.86.342"/><ellipse cx="10.122" cy="24.13" rx=".341" ry="1.863"/><ellipse cx="10.122" cy="24.13" rx="1.855" ry=".342"/><ellipse cx="15.05" cy="24.13" rx=".342" ry="1.863"/><ellipse cx="15.05" cy="24.13" rx="1.855" ry=".342"/><ellipse cx="19.868" cy="24.13" rx=".342" ry="1.863"/><ellipse cx="19.868" cy="24.13" rx="1.855" ry=".342"/><ellipse cx="7.736" cy="20.407" rx=".341" ry="1.863"/><path d="m7.735 20.75c1.024 0 1.852-.151 1.852-.343 0-.19-.827-.342-1.852-.342-1.027 0-1.859.152-1.859.342 0 .192.832.343 1.859.343"/><ellipse cx="12.573" cy="20.407" rx=".342" ry="1.863"/><path d="m12.573 20.75c1.029 0 1.857-.151 1.857-.343 0-.19-.828-.342-1.857-.342-1.023 0-1.855.152-1.855.342 0 .192.832.343 1.855.343"/><ellipse cx="17.499" cy="20.407" rx=".341" ry="1.863"/><ellipse cx="17.499" cy="20.408" rx="1.855" ry=".342"/><ellipse cx="22.319" cy="20.407" rx=".342" ry="1.863"/><ellipse cx="22.319" cy="20.408" rx="1.857" ry=".342"/><path d="m2.522 27.857c0 1.029.15 1.862.341 1.862.192 0 .343-.833.343-1.862 0-1.03-.15-1.863-.343-1.863-.19.0001-.341.834-.341 1.863"/><ellipse cx="2.862" cy="27.857" rx="1.855" ry=".342"/><ellipse cx="7.736" cy="27.857" rx=".341" ry="1.862"/><path d="m7.735 28.2c1.024 0 1.852-.151 1.852-.342s-.827-.343-1.852-.343c-1.027 0-1.859.152-1.859.343s.832.342 1.859.342"/><ellipse cx="12.573" cy="27.857" rx=".342" ry="1.862"/><path d="m12.573 28.2c1.029 0 1.857-.151 1.857-.342s-.828-.343-1.857-.343c-1.023 0-1.855.152-1.855.343s.832.342 1.855.342"/><ellipse cx="17.499" cy="27.857" rx=".341" ry="1.862"/><ellipse cx="17.499" cy="27.857" rx="1.855" ry=".342"/><ellipse cx="22.319" cy="27.857" rx=".342" ry="1.862"/><ellipse cx="22.319" cy="27.857" rx="1.857" ry=".342"/></g></svg>

<?xml version="1.0" encoding="UTF-8" standalone="no"?>
<!-- Generator: Adobe Illustrator 16.0.0, SVG Export Plug-In . SVG Version: 6.00 Build 0)  -->

<svg
   xmlns:dc="http://purl.org/dc/elements/1.1/"
   xmlns:cc="http://creativecommons.org/ns#"
   xmlns:rdf="http://www.w3.org/1999/02/22-rdf-syntax-ns#"
   xmlns:svg="http://www.w3.org/2000/svg"
   xmlns="http://www.w3.org/2000/svg"
   xmlns:sodipodi="http://sodipodi.sourceforge.net/DTD/sodipodi-0.dtd"
   xmlns:inkscape="http://www.inkscape.org/namespaces/inkscape"
   version="1.1"
   id="Layer_1"
   x="0px"
   y="0px"
   width="64px"
   height="64px"
   viewBox="0 0 64 64"
   enable-background="new 0 0 64 64"
   xml:space="preserve"
   inkscape:version="0.48.5 r10040"
   sodipodi:docname="1F1FA-1F1F8.svg"
   inkscape:export-filename="D:\TESTINGEMOJI\SVGTEST\1F1FA-1F1F8.png"
   inkscape:export-xdpi="90"
   inkscape:export-ydpi="90"><metadata
   id="metadata4226"><rdf:RDF><cc:Work
       rdf:about=""><dc:format>image/svg+xml</dc:format><dc:type
         rdf:resource="http://purl.org/dc/dcmitype/StillImage" /><dc:title></dc:title></cc:Work></rdf:RDF></metadata><defs
   id="defs4224" /><sodipodi:namedview
   pagecolor="#ffffff"
   bordercolor="#666666"
   borderopacity="1"
   objecttolerance="10"
   gridtolerance="10"
   guidetolerance="10"
   inkscape:pageopacity="0"
   inkscape:pageshadow="2"
   inkscape:window-width="640"
   inkscape:window-height="480"
   id="namedview4222"
   showgrid="false"
   inkscape:zoom="3.6875"
   inkscape:cx="32"
   inkscape:cy="32"
   inkscape:window-x="697"
   inkscape:window-y="325"
   inkscape:window-maximized="0"
   inkscape:current-layer="Layer_1" />
<g
   id="g4020">
	<g
   id="g4022">
		<path
   fill="#EC1C24"
   d="M57.053,12.831H6.947c-3.798,0-6.882,3.699-6.882,8.258v5.604v13.868v5.602c0,4.563,3.08,8.26,6.887,8.26    h50.101c3.803,0,6.883-3.699,6.883-8.26v-5.602V26.695v-5.604C63.936,16.53,60.854,12.831,57.053,12.831z"
   id="path4024" />
	</g>
	<path
   fill="#FFFFFF"
   d="M0.454,48.786c0.916,3.269,3.46,5.635,6.495,5.635h50.104c3.031,0,5.574-2.37,6.493-5.635H0.454z"
   id="path4026" />
	<path
   fill="#EC1C24"
   d="M2.435,52.357c1.201,1.281,2.775,2.065,4.515,2.065h50.104c1.737,0,3.309-0.784,4.51-2.065H2.435z"
   id="path4028" />
	<path
   fill="#FFFFFF"
   d="M63.48,18.221c-0.351-1.132-0.883-2.159-1.588-2.996H2.11c-0.705,0.837-1.236,1.864-1.589,2.996H63.48z"
   id="path4030" />
	<rect
   x="0.065"
   y="23.257"
   fill="#FFFFFF"
   width="63.869"
   height="4.411"
   id="rect4032" />
	<rect
   x="0.065"
   y="31.709"
   fill="#FFFFFF"
   width="63.869"
   height="3.578"
   id="rect4034" />
	<rect
   x="0.065"
   y="39.508"
   fill="#FFFFFF"
   width="63.869"
   height="5.248"
   id="rect4036" />
	<g
   id="g4038">
		<path
   fill="#176496"
   d="M25.114,31.709V12.831H6.892c-3.766,0-6.826,3.359-6.826,7.495v5.086v6.294L25.114,31.709L25.114,31.709z"
   id="path4040" />
	</g>
	<g
   id="g4042">
		<g
   id="g4044">
			<ellipse
   fill="#F4F5F5"
   cx="5.263"
   cy="16.749"
   rx="0.34"
   ry="1.862"
   id="ellipse4046" />
		</g>
		<g
   id="g4048">
			<path
   fill="#F4F5F5"
   d="M5.265,17.091c1.024,0,1.852-0.153,1.852-0.343c0-0.189-0.827-0.343-1.852-0.343     c-1.029,0-1.859,0.154-1.859,0.343C3.405,16.938,4.235,17.091,5.265,17.091z"
   id="path4050" />
		</g>
	</g>
	<g
   id="g4052">
		<g
   id="g4054">
			<path
   fill="#F4F5F5"
   d="M2.522,20.407c0,1.03,0.15,1.863,0.341,1.863c0.192,0,0.343-0.833,0.343-1.863     c0-1.029-0.15-1.862-0.343-1.862C2.673,18.546,2.522,19.377,2.522,20.407z"
   id="path4056" />
		</g>
		<g
   id="g4058">
			<ellipse
   fill="#F4F5F5"
   cx="2.862"
   cy="20.408"
   rx="1.855"
   ry="0.342"
   id="ellipse4060" />
		</g>
	</g>
	<g
   id="g4062">
		<g
   id="g4064">
			<ellipse
   fill="#F4F5F5"
   cx="10.103"
   cy="16.749"
   rx="0.341"
   ry="1.862"
   id="ellipse4066" />
		</g>
		<g
   id="g4068">
			<ellipse
   fill="#F4F5F5"
   cx="10.101"
   cy="16.748"
   rx="1.857"
   ry="0.343"
   id="ellipse4070" />
		</g>
	</g>
	<g
   id="g4072">
		<g
   id="g4074">
			<ellipse
   fill="#F4F5F5"
   cx="15.026"
   cy="16.749"
   rx="0.342"
   ry="1.862"
   id="ellipse4076" />
		</g>
		<g
   id="g4078">
			<ellipse
   fill="#F4F5F5"
   cx="15.026"
   cy="16.748"
   rx="1.857"
   ry="0.343"
   id="ellipse4080" />
		</g>
	</g>
	<g
   id="g4082">
		<g
   id="g4084">
			<ellipse
   fill="#F4F5F5"
   cx="19.848"
   cy="16.749"
   rx="0.341"
   ry="1.862"
   id="ellipse4086" />
		</g>
		<g
   id="g4088">
			<ellipse
   fill="#F4F5F5"
   cx="19.849"
   cy="16.748"
   rx="1.857"
   ry="0.343"
   id="ellipse4090" />
		</g>
	</g>
	<g
   id="g4092">
		<g
   id="g4094">
			<ellipse
   fill="#F4F5F5"
   cx="5.281"
   cy="24.132"
   rx="0.339"
   ry="1.863"
   id="ellipse4096" />
		</g>
		<g
   id="g4098">
			<path
   fill="#F4F5F5"
   d="M5.283,24.475c1.024,0,1.853-0.151,1.853-0.342c0-0.191-0.828-0.342-1.853-0.342     c-1.028,0-1.86,0.151-1.86,0.342C3.423,24.323,4.255,24.475,5.283,24.475z"
   id="path4100" />
		</g>
	</g>
	<g
   id="g4102">
		<g
   id="g4104">
			<ellipse
   fill="#F4F5F5"
   cx="10.122"
   cy="24.132"
   rx="0.341"
   ry="1.863"
   id="ellipse4106" />
		</g>
		<g
   id="g4108">
			<ellipse
   fill="#F4F5F5"
   cx="10.122"
   cy="24.132"
   rx="1.855"
   ry="0.342"
   id="ellipse4110" />
		</g>
	</g>
	<g
   id="g4112">
		<g
   id="g4114">
			<ellipse
   fill="#F4F5F5"
   cx="15.046"
   cy="24.132"
   rx="0.342"
   ry="1.863"
   id="ellipse4116" />
		</g>
		<g
   id="g4118">
			<ellipse
   fill="#F4F5F5"
   cx="15.046"
   cy="24.132"
   rx="1.855"
   ry="0.342"
   id="ellipse4120" />
		</g>
	</g>
	<g
   id="g4122">
		<g
   id="g4124">
			<ellipse
   fill="#F4F5F5"
   cx="19.868"
   cy="24.132"
   rx="0.342"
   ry="1.863"
   id="ellipse4126" />
		</g>
		<g
   id="g4128">
			<ellipse
   fill="#F4F5F5"
   cx="19.868"
   cy="24.132"
   rx="1.855"
   ry="0.342"
   id="ellipse4130" />
		</g>
	</g>
	<g
   id="g4132">
		<g
   id="g4134">
			<ellipse
   fill="#F4F5F5"
   cx="7.736"
   cy="20.407"
   rx="0.341"
   ry="1.863"
   id="ellipse4136" />
		</g>
		<g
   id="g4138">
			<path
   fill="#F4F5F5"
   d="M7.735,20.75c1.024,0,1.852-0.151,1.852-0.343c0-0.19-0.827-0.342-1.852-0.342     c-1.027,0-1.859,0.152-1.859,0.342C5.876,20.599,6.708,20.75,7.735,20.75z"
   id="path4140" />
		</g>
	</g>
	<g
   id="g4142">
		<g
   id="g4144">
			<ellipse
   fill="#F4F5F5"
   cx="12.573"
   cy="20.407"
   rx="0.342"
   ry="1.863"
   id="ellipse4146" />
		</g>
		<g
   id="g4148">
			<path
   fill="#F4F5F5"
   d="M12.573,20.75c1.029,0,1.857-0.151,1.857-0.343c0-0.19-0.828-0.342-1.857-0.342     c-1.023,0-1.855,0.152-1.855,0.342C10.718,20.599,11.55,20.75,12.573,20.75z"
   id="path4150" />
		</g>
	</g>
	<g
   id="g4152">
		<g
   id="g4154">
			<ellipse
   fill="#F4F5F5"
   cx="17.499"
   cy="20.407"
   rx="0.341"
   ry="1.863"
   id="ellipse4156" />
		</g>
		<g
   id="g4158">
			<ellipse
   fill="#F4F5F5"
   cx="17.499"
   cy="20.408"
   rx="1.855"
   ry="0.342"
   id="ellipse4160" />
		</g>
	</g>
	<g
   id="g4162">
		<g
   id="g4164">
			<ellipse
   fill="#F4F5F5"
   cx="22.319"
   cy="20.407"
   rx="0.342"
   ry="1.863"
   id="ellipse4166" />
		</g>
		<g
   id="g4168">
			<ellipse
   fill="#F4F5F5"
   cx="22.319"
   cy="20.408"
   rx="1.857"
   ry="0.342"
   id="ellipse4170" />
		</g>
	</g>
	<g
   id="g4172">
		<g
   id="g4174">
			<path
   fill="#F4F5F5"
   d="M2.522,27.857c0,1.029,0.15,1.862,0.341,1.862c0.192,0,0.343-0.833,0.343-1.862     c0-1.03-0.15-1.863-0.343-1.863C2.673,25.995,2.522,26.828,2.522,27.857z"
   id="path4176" />
		</g>
		<g
   id="g4178">
			<ellipse
   fill="#F4F5F5"
   cx="2.862"
   cy="27.857"
   rx="1.855"
   ry="0.342"
   id="ellipse4180" />
		</g>
	</g>
	<g
   id="g4182">
		<g
   id="g4184">
			<ellipse
   fill="#F4F5F5"
   cx="7.736"
   cy="27.857"
   rx="0.341"
   ry="1.862"
   id="ellipse4186" />
		</g>
		<g
   id="g4188">
			<path
   fill="#F4F5F5"
   d="M7.735,28.199c1.024,0,1.852-0.151,1.852-0.342s-0.827-0.343-1.852-0.343     c-1.027,0-1.859,0.152-1.859,0.343S6.708,28.199,7.735,28.199z"
   id="path4190" />
		</g>
	</g>
	<g
   id="g4192">
		<g
   id="g4194">
			<ellipse
   fill="#F4F5F5"
   cx="12.573"
   cy="27.857"
   rx="0.342"
   ry="1.862"
   id="ellipse4196" />
		</g>
		<g
   id="g4198">
			<path
   fill="#F4F5F5"
   d="M12.573,28.199c1.029,0,1.857-0.151,1.857-0.342s-0.828-0.343-1.857-0.343     c-1.023,0-1.855,0.152-1.855,0.343S11.55,28.199,12.573,28.199z"
   id="path4200" />
		</g>
	</g>
	<g
   id="g4202">
		<g
   id="g4204">
			<ellipse
   fill="#F4F5F5"
   cx="17.499"
   cy="27.857"
   rx="0.341"
   ry="1.862"
   id="ellipse4206" />
		</g>
		<g
   id="g4208">
			<ellipse
   fill="#F4F5F5"
   cx="17.499"
   cy="27.857"
   rx="1.855"
   ry="0.342"
   id="ellipse4210" />
		</g>
	</g>
	<g
   id="g4212">
		<g
   id="g4214">
			<ellipse
   fill="#F4F5F5"
   cx="22.319"
   cy="27.857"
   rx="0.342"
   ry="1.862"
   id="ellipse4216" />
		</g>
		<g
   id="g4218">
			<ellipse
   fill="#F4F5F5"
   cx="22.319"
   cy="27.857"
   rx="1.857"
   ry="0.342"
   id="ellipse4220" />
		</g>
	</g>
</g>
</svg>
